packages/icons/src/svg/file-job-o.svg

<svg xmlns="http://www.w3.org/2000/svg" viewBox="0 0 32 32">
  <path class="ti-file" d="M21.99986,25V17a2.50377,2.50377,0,0,0-2-2H14l3.88566,6.11324L14,27.00008h5.99992A2.50288,2.50288,0,0,0,21.99986,25ZM12,14.99992H2.00012a1.95877,1.95877,0,0,0-2,1.91665q-.00089.04167,0,.08335V25a1.95877,1.95877,0,0,0,1.91665,2q.04167.00089.08335,0H12l3.99994-6ZM6.06148,24.81731l-3.6457-3.6458L4.0753,19.51207l1.98618,1.98709L9.92483,17.6357l1.65952,1.65945Z"/>
  <path class="ti-file-job-o-badge" d="M22,0H6V14H8V2H19V12H30V30H8V28H6v4H32V10ZM21,10V2l8,8Z"/>
</svg>

<svg xmlns="http://www.w3.org/2000/svg" viewBox="0 0 32 32">
	<path class="ti-file" d="M22 25v-8a2.504 2.504 0 0 0-2-2h-6l3.886 6.113L14 27h6a2.503 2.503 0 0 0 2-2zM12 15H2a1.959 1.959 0 0 0-2 1.917V25a1.959 1.959 0 0 0 1.917 2H12l4-6zm-5.939 9.817l-3.645-3.645 1.66-1.66L6.06 21.5l3.864-3.863 1.66 1.66z"/>
	<path class="ti-file-job-o-badge" d="M22 0H6v14h2V2h11v10h11v18H8v-2H6v4h26V10zm-1 10V2l8 8z"/>
</svg>
